src/assets/icon/youtube.svg

<svg width="24" height="25" viewBox="0 0 24 25" fill="none" xmlns="http://www.w3.org/2000/svg">
<circle cx="12" cy="12.2666" r="11.5" stroke="#939290"/>
<path fill-rule="evenodd" clip-rule="evenodd" d="M18.405 8.23024C18.0252 7.52842 17.6131 7.39933 16.774 7.35024C15.9358 7.29115 13.8279 7.2666 12.0017 7.2666C10.1721 7.2666 8.06337 7.29115 7.226 7.34933C6.38862 7.39933 5.97562 7.52751 5.59237 8.23024C5.20125 8.93115 5 10.1384 5 12.2639V12.2711C5 14.3875 5.20125 15.6039 5.59237 16.2975C5.97562 16.9993 6.38775 17.1266 7.22513 17.1857C8.06337 17.2366 10.1721 17.2666 12.0017 17.2666C13.8279 17.2666 15.9358 17.2366 16.7749 17.1866C17.614 17.1275 18.0261 17.0002 18.4059 16.2984C18.8005 15.6048 19 14.3884 19 12.2721V12.2648C19 10.1384 18.8005 8.93115 18.405 8.23024ZM10.25 14.9939V9.53933L14.625 12.2666L10.25 14.9939Z" fill="#939290"/>
</svg>

<svg width="24" height="25" fill="none" xmlns="http://www.w3.org/2000/svg"><circle cx="12" cy="12.267" r="11.5" stroke="#939290"/><path fill-rule="evenodd" clip-rule="evenodd" d="M18.405 8.23c-.38-.702-.792-.83-1.631-.88-.838-.059-2.946-.083-4.772-.083-1.83 0-3.939.024-4.776.082-.837.05-1.25.179-1.634.881-.39.701-.592 1.908-.592 4.034v.007c0 2.116.201 3.333.592 4.026.384.702.796.83 1.633.889.838.05 2.947.08 4.777.08 1.826 0 3.934-.03 4.773-.08.839-.058 1.251-.186 1.63-.888.395-.693.595-1.91.595-4.026v-.007c0-2.127-.2-3.334-.595-4.035Zm-8.155 6.764V9.539l4.375 2.728-4.375 2.727Z" fill="#939290"/></svg>
